src/images/icons/calendar.svg

<svg width="24" height="24" fill="none" xmlns="http://www.w3.org/2000/svg"><path d="M5 17V9h12v3.09c.33-.05.66-.09 1-.09.34 0 .67.04 1 .09V6c0-1.1-.9-2-2-2h-1V2h-2v2H8V2H6v2H5c-1.11 0-1.99.9-1.99 2L3 17a2 2 0 002 2h7.09c-.05-.33-.09-.66-.09-1 0-.34.04-.67.09-1H5z" fill="#5F6368"/><path d="M19 17v-3h-2v3h-3v2h3v3h2v-3h3v-2h-3z" fill="#5F6368"/></svg>

<svg width="24" height="24" viewBox="0 0 24 24" fill="none" xmlns="http://www.w3.org/2000/svg">
<path d="M5 17V9H17V12.09C17.33 12.04 17.66 12 18 12C18.34 12 18.67 12.04 19 12.09V6C19 4.9 18.1 4 17 4H16V2H14V4H8V2H6V4H5C3.89 4 3.01 4.9 3.01 6L3 17C3 18.1 3.89 19 5 19H12.09C12.04 18.67 12 18.34 12 18C12 17.66 12.04 17.33 12.09 17H5Z" fill="#5F6368"/>
<path d="M19 17V14H17V17H14V19H17V22H19V19H22V17H19Z" fill="#5F6368"/>
</svg>
